X:42
T:Peut-on mieux faire. [FJ42]
S:Festin joyeux.  Music page 21.
Z:transcribed by Eric Conrad, 2021.
N:NB The meter is given simply as "3"
N:NB In the MS, the G is the bottom line of the staff
N:NB Repeat marks were added at beginning and end.
N:NB The MS repeat mark is 4 vertical dots enclosed by bars on both sides.
N:NB The plus signs seem to indicate some kind of roll or trill.
N:NB1 MS has a dot with no note, here interpreted as a rest.
M:3/4
L:1/4
% K:G clef=treble1 % staff GBdfa
K:G % one sharp in sig and end G (G Major)
|: ddg | "^+"f2g | Bc B/4A/4B/ | "^+"B2B | ddg | "^+"f2g |
Bc B/4A/4B/ | "^+"B3 :: d>ef | gf2 | e2d | ^c2A |
e2e | e2f | "_NB1"z/g/ "^+"e>d | d3 | g>fe | d>cB |
cA>B | "^+"B2A | d2d | d>cB | e"^+"A>G | G3 :|

